src/pos-icons/menu.svg

<svg height="24" viewBox="0 0 24 24" width="24" xmlns="http://www.w3.org/2000/svg"><path d="m3 6h18v2h-18zm0 5h18v2h-18zm0 5h18v2h-18z"/></svg>

<?xml version="1.0" encoding="UTF-8"?><!DOCTYPE svg PUBLIC "-//W3C//DTD SVG 1.1//EN" "http://www.w3.org/Graphics/SVG/1.1/DTD/svg11.dtd"><svg xmlns="http://www.w3.org/2000/svg" xmlns:xlink="http://www.w3.org/1999/xlink" version="1.1" id="mdi-menu" width="24" height="24" viewBox="0 0 24 24"><path d="M3,6H21V8H3V6M3,11H21V13H3V11M3,16H21V18H3V16Z" /></svg>
